X:1
T:Yellow Tinker
R:Reel
S:Emily Hawkes (Fev/2002)
Z:Gwenael Lambrouin 24/Jan/2004
M:2/2
L:1/8
Q:1/4=120
K:Amix
|: EAAA EFGF | EAAA eAcA | EAAA EDEF | G2B/A/G =cGBG :|
  A2eA fAeA | AAe2 dBGB | A2eA fAe2 | d2BG DGBG |
|  A2eA fAeA | AAe2 dBGB | eeef ggge | d2BG DGBG | 

